images/neocrym/v2/SVG/neocrym-circle-logo-black-on-transparent.svg

<?xml version="1.0" encoding="UTF-8"?><svg id="Background" xmlns="http://www.w3.org/2000/svg" viewBox="0 0 500 500"><defs><style>.cls-1{fill:#f9662b;}</style></defs><path d="m241.26,197.05l-91.46-74.4c-2.9-2.37-7.29-.3-7.29,3.44v155.72l-34.47,19.49c-8.71,4.92-14.1,14.16-14.1,24.17v49.46c0,2.61,2.84,4.32,5.15,3.02l43.42-24.58,21.44-12.14c8.71-4.92,14.1-14.16,14.1-24.23v-125.52l71.91,58.52v-34.71c0-7.05-3.2-13.8-8.71-18.24Z"/><path class="cls-1" d="m400.84,122.06l-43.42,24.58-21.44,12.14c-8.71,4.92-14.1,14.22-14.1,24.23v125.51l-71.91-58.52v34.71c0,7.05,3.2,13.8,8.71,18.24l91.46,74.4c2.96,2.37,7.29.3,7.29-3.44v-155.72l34.47-19.49c8.77-4.92,14.16-14.16,14.16-24.17v-49.46c0-2.61-2.9-4.32-5.21-3.02Z"/></svg>

<svg id="Background" xmlns="http://www.w3.org/2000/svg" viewBox="0 0 500 500"><defs><style>.cls-1{fill:#f9662b;}</style></defs><path d="M241.26,197.05l-91.45-74.4a4.47,4.47,0,0,0-7.29,3.43V281.81L108.05,301.3A27.74,27.74,0,0,0,94,325.46v49.46a3.46,3.46,0,0,0,5.15,3l43.42-24.58L164,341.22A27.79,27.79,0,0,0,178.06,317V191.48L250,250V215.29A23.48,23.48,0,0,0,241.26,197.05Z"/><path class="cls-1" d="M400.84,122.06l-43.42,24.58L336,158.78A27.86,27.86,0,0,0,321.88,183V308.52L250,250v34.71A23.48,23.48,0,0,0,258.68,303l91.45,74.4a4.46,4.46,0,0,0,7.29-3.43V218.19l34.47-19.49a27.67,27.67,0,0,0,14.16-24.16V125.08A3.51,3.51,0,0,0,400.84,122.06Z"/></svg>
